X: 0
T: Gelobt Sei Gott
Z: Unknown
Z: Public Domain
L: 1/4
M: 3/4
Q: 1/4=120
V: P1 name="Staff"
%%MIDI program 1 19
V: P2 name="Staff-2"
%%MIDI program 2 19
K: C
[V: P1]  [EGc] [E,EB] [F,CFA] | [G,B,DG] F, [E,CG] | [F,CFA] E, [DB] | [EGc] C B, | [A,EAc] [E/A/c/]G,/ [F,DAd] | [F,B,DG] [E,C] [EAc] | [DB] E [D^F] | [B,DG] G, F, | [E,CG] [G,E] [F,A] | [B,G] [E,C] [F,/F/]B,/ | [G,CE] [A,D] [G,B,] | [E,3C3] | [C2E2G2c2] [G,DGB] | [A,3/C3/E3/c3/] [G,/B/] [F,CFA] | [E,CG] E/B,/ [A,D^F] | [G,DG] B,/F/ [CE] | [F,A,D] [E,G,C] [G,B,] | [E,3G,3C3]|]
[V: P2]  C,z2 |z3 |z2 D, | C,z2 |z3 |z2 A,, | B,, C, D, | G,,z2 |z E,, F,, | [F,,D,] E,, D,, | E,, F,, G,, | C,3 |z3 |z3 |z C, D, | B,, G,, [A,,C,] | F,, G,, [G,,D,] | C,3|]

